!!!SOCIAL_FUNCTION:	songs concerning the sacred stones
!!!PDT:	1918

Specific Region: Dakotas, Minnesota, Montana, Nebraska
!!!REG: Dakotas and Montana
!!!LING_GROUP: Siouan
!!!LANG: Tone
!!!OTL@ENG: From Whence the Winds Blow
!!!ONM: No. 75
**kern
*Imale
*clefF4
*k[b-e-a-d-]
*M2/4
*MM100
8c
8c
=1
4c
4c
=2||
*M3/4
4c
4c
8c
8c
=3
2c
8c
8c
=4||
*M2/4
4c
4c
=5||
*M3/4
4c
4c
8c
8c
=6
4c
8B-
8B-
16B-
16B-
8B-
=7
4B-
8A-
8A-
4F
=8||
*M2/4
8A-
8A-
8A-
8A-
=9
4F
4F
=10
4F
8F
8F
=11||
*M3/4
2F
8B-
8B-
=12||
*M2/4
4B-
4B-
=13||
*M3/4
4B-
4B-
8B-
8B-
=14
4B-
8A-
8A-
16A-
16A-
8A-
=15
4A-
8F
8F
4F
=16||
*M2/4
8F
8F
8F
8F
=17
4F
4F
=18
4F
8F
8F
=19||
*M3/4
2F
8C
8C
=20||
*M2/4
4C
4C
=21||
*M3/4
4C
4C
8C
8C
=22
2.C
==
*-
!!!CNT: Native American -- Sioux
!!!MRD: 1911/07//-1914///
!!!OCL: Frances Densmore
!!!YOR1: Teton Sioux Music, Bulletin 61,
!!!YOR2: Bureau of American Ethnology, Smithsonian Institution
!!!PPR: Government Printing Office
!!!PPP: Washington, D.C.
!!!PDT: 1918///
!!!ENC: Craig Stuart Sapp
!!!END: 2002/03/25/
!!!EEV: 2002/03/31/
!!!AGN: Song of Personal Dreams/Song Concerning the Sacred Stones
!!!MPN@@SIO: Shiya'ka
!!!MPN@ENG: Teal Duck
!!!TXO: Teton Sioux
!!!MLC: Standing Rock Reservation, South Dakota, United States of America
!!!ARL: 45.9/-100.7#
!!!catalog: Catalogue No. 463
!!!PPG: 233
!!!EFL: 75/245
!!!VTS: 808885807
